X:1
T:Title
%%score { ( 1 4 ) | ( 2 3 ) }
L:1/8
M:4/4
K:Bb
V:1 treble nm="Grand Piano"
V:4 treble 
V:2 bass 
V:3 bass 
V:1
 z4 z2[Q:1/4=100] [DF]2 | [DFB]2 [DGB]2 [EGc]2 [EGd]>[EGc] | [DFB]2 [CEA][DB] [Fc]2 [^Fd]>[Fc] | %3
 [GB]2 [Gc]2 [Fd]2 [Ec]2 | [DB]4 z2 F>F | B2 B2 [EGc]2 [EGd]>[EGc] | [DFB]2 [CEA]B c2 f>e | %7
 d2 B2 [EGc]2 .[CFA]2 |[M:3/4] [B,DB]4 z2 |[M:1/4] F>F |[M:4/4] c2 =B2 c2 F>F | d2 _d2 =d2 c>d | %12
 e2 c2 d2 [FB]2 | c6 d>d | e2 d2 c2 B2 | A2 [=EG]2 F2 F>F | z2 B2 z4 |[M:3/4] [DB]6 |] %18
V:2
 z4 z2 B,2 | B,2 G,2 E,2 C,>C, | F,2 z B, [F,A,]2 [D,A,]>[D,D] | [G,D]2 [E,E]2 [F,B,]2 [F,A,]2 | %4
 [B,,B,]4 z2[K:treble] [B,D]>[B,D] | [B,DF]2 [G,DG]2[K:bass] E,2 C,>C, | %6
 F,2 z [B,D] [F,A,]2[K:treble] [A,CF]>[A,CF] | [B,F]2 [G,DG]2[K:bass] E,2 z E |[M:3/4] B,,4 z2 | %9
[M:1/4] F,>F, |[M:4/4] [F,A,F]2 [F,_A,F]2 [F,=A,F]2 F,>F, | %11
 [F,B,F]2 [F,A,F]2 [F,B,F]2 [F,A,F]>[F,B,F] | [F,CF]2 [F,A,F]2 [B,F]2[K:bass] [D,B,]2 | %13
 [F,A,F]6[K:treble] [B,F]>[B,FB] | [CFA]2 [B,FB]2 [A,CF]2[K:bass] [G,C=E]2 | %15
 [F,CF]2 [C,B,]2 [F,A,]2 [D,B,]>[D,B,] | B,C .[G,B,D]2 [F,B,F]2 [F,,A,E]2 |[M:3/4] [B,,B,]6 |] %18
V:3
 x8 | x8 | z2 F,2 z4 | x8 | x6[K:treble] x2 | x4[K:bass] x4 | z2 F,2 z4[K:treble] | %7
 z4[K:bass] z2 F,2 |[M:3/4] x6 |[M:1/4] x2 |[M:4/4] x8 | x8 | x6[K:bass] x2 | x6[K:treble] x2 | %14
 x6[K:bass] x2 | x8 | [E,E]2 z2 z4 |[M:3/4] x6 |] %18
V:4
 x8 | x8 | x8 | x8 | x8 | x8 | x8 | x8 |[M:3/4] x6 |[M:1/4] x2 |[M:4/4] x8 | x8 | x8 | x8 | x8 | %15
 x8 | GA z =E d2 c2 |[M:3/4] x6 |] %18

